icons/tokens/0xc00e94Cb662C3520282E6f5717214004A7f26888/logo.svg

<svg xmlns="http://www.w3.org/2000/svg" width="32" height="32" viewBox="0 0 32 32">
  <g fill="none" fill-rule="evenodd">
    <path fill="#000" fill-rule="nonzero" d="M16,32 C24.8368,32 32,24.8368 32,16 C32,7.1632 24.8368,0 16,0 C7.1632,0 0,7.1632 0,16 C0,24.8368 7.1632,32 16,32 Z"/>
    <path fill="#00D395" d="M9.2432,21.3648 C8.7648,21.072 8.472,20.552 8.472,19.992 L8.472,16.8656 C8.472,16.4944 8.7744,16.1936 9.1456,16.1951936 C9.264,16.1951936 9.3808,16.2272 9.4832,16.2864 L16.5376,20.4 C16.9504,20.64 17.2048053,21.0816 17.2048053,21.56 L17.2048053,24.7984 C17.2064,25.2432 16.8464,25.6048 16.4016,25.6048 C16.2528,25.6048 16.1056,25.5632 15.9792,25.4864 L9.2432,21.3648 Z M19.7584,15.4304 C20.1712,15.6704 20.424,16.1136 20.4256,16.5904 L20.4256,23.1632 C20.4256,23.3568 20.3216,23.536 20.152,23.6304 L18.608,24.4992 C18.5888,24.5104 18.568,24.5184 18.5456,24.5248 L18.5456,20.8752 C18.5456,20.4032 18.2976,19.9648 17.8912,19.7216 L11.696,16.016 L11.696,11.896 C11.696,11.5248 11.9984,11.224 12.3696,11.2255936 C12.488,11.2255936 12.6048,11.2576 12.7072,11.3168 L19.7584,15.4304 Z M22.8464,10.576 C23.2608,10.816 23.5152,11.2592 23.5152,11.7376 L23.5152,21.3376 C23.5136,21.5344 23.4048,21.7152 23.232,21.8096 L21.768,22.6 L21.768,15.9168 C21.768,15.4448 21.52,15.008 21.1168,14.7648 L14.784,10.9664 L14.784,7.0592 C14.784,6.9408 14.816,6.824 14.8736,6.7216 C15.0608,6.4016 15.472,6.2928 15.792,6.4784 L22.8464,10.576 Z"/>
  </g>
</svg>

<svg xmlns="http://www.w3.org/2000/svg" width="32" height="32"><g fill="none" fill-rule="evenodd"><path fill="#000" fill-rule="nonzero" d="M16 32c8.837 0 16-7.163 16-16S24.837 0 16 0 0 7.163 0 16s7.163 16 16 16z"/><path fill="#00D395" d="M9.243 21.365a1.611 1.611 0 01-.771-1.373v-3.126a.67.67 0 011.011-.58l7.055 4.114c.412.24.667.682.667 1.16v3.238a.803.803 0 01-1.226.688l-6.736-4.121zm10.515-5.935c.413.24.666.684.668 1.16v6.573a.534.534 0 01-.274.467l-1.544.87a.27.27 0 01-.062.025v-3.65c0-.472-.248-.91-.655-1.153l-6.195-3.706v-4.12a.67.67 0 011.011-.58l7.051 4.114zm3.088-4.854c.415.24.67.683.67 1.162v9.6a.544.544 0 01-.284.472l-1.464.79v-6.683c0-.472-.248-.909-.651-1.152l-6.333-3.799V7.06a.674.674 0 011.008-.58l7.054 4.097z"/></g></svg>
